apps/site/public/icons/companies/react.svg

<svg width="48" height="48" viewBox="0 0 48 48" fill="none" xmlns="http://www.w3.org/2000/svg">
<g clip-path="url(#clip0_4437_8783)">
<path d="M23.9965 27.8191C26.111 27.8191 27.8251 26.1091 27.8251 23.9997C27.8251 21.8904 26.111 20.1804 23.9965 20.1804C21.8821 20.1804 20.168 21.8904 20.168 23.9997C20.168 26.1091 21.8821 27.8191 23.9965 27.8191Z" fill="#61DAFB"/>
<path d="M24.0014 31.8249C35.3472 31.8249 44.5448 28.3216 44.5448 24C44.5448 19.6784 35.3472 16.175 24.0014 16.175C12.6556 16.175 3.45801 19.6784 3.45801 24C3.45801 28.3216 12.6556 31.8249 24.0014 31.8249Z" stroke="#61DAFB" stroke-width="2.26076"/>
<path d="M17.2048 27.9127C22.8777 37.7148 30.5178 43.9092 34.2695 41.7484C38.0211 39.5876 36.4636 29.8898 30.7907 20.0877C25.1178 10.2856 17.4777 4.09112 13.7261 6.25192C9.97442 8.41272 11.5319 18.1106 17.2048 27.9127Z" stroke="#61DAFB" stroke-width="2.26076"/>
<path d="M17.2112 20.0876C11.5383 29.8897 9.98083 39.5875 13.7325 41.7483C17.4841 43.9091 25.1242 37.7147 30.7971 27.9126C36.4701 18.1105 38.0275 8.41263 34.2759 6.25183C30.5242 4.09103 22.8841 10.2855 17.2112 20.0876Z" stroke="#61DAFB" stroke-width="2.26076"/>
</g>
<defs>
<clipPath id="clip0_4437_8783">
<rect width="42.9544" height="38.1252" fill="white" transform="translate(2.52295 4.93741)"/>
</clipPath>
</defs>
</svg>

<svg xmlns="http://www.w3.org/2000/svg" width="48" height="48" fill="none" viewBox="0 0 48 48"><g clip-path="url(#a)"><path fill="#61dafb" d="M23.997 27.82A3.824 3.824 0 0 0 27.825 24c0-2.11-1.714-3.82-3.828-3.82A3.824 3.824 0 0 0 20.168 24c0 2.11 1.714 3.82 3.829 3.82"/><path stroke="#61dafb" stroke-width="2.261" d="M24.001 31.825c11.346 0 20.544-3.503 20.544-7.825S35.347 16.175 24 16.175 3.458 19.678 3.458 24s9.198 7.825 20.543 7.825Z"/><path stroke="#61dafb" stroke-width="2.261" d="M17.205 27.913c5.673 9.802 13.313 15.996 17.065 13.835 3.751-2.16 2.194-11.858-3.48-21.66C25.119 10.286 17.479 4.09 13.727 6.252s-2.194 11.859 3.479 21.66Z"/><path stroke="#61dafb" stroke-width="2.261" d="M17.211 20.088c-5.673 9.802-7.23 19.5-3.478 21.66 3.751 2.161 11.391-4.033 17.064-13.835 5.673-9.803 7.23-19.5 3.479-21.661S22.884 10.286 17.21 20.088Z"/></g><defs><clipPath id="a"><path fill="#fff" d="M2.523 4.937h42.954v38.125H2.523z"/></clipPath></defs></svg>
